Sensual-Icons/Sensual-Breeze-Dark/apps/48/system-file-manager.svg

<?xml version="1.0" encoding="UTF-8" standalone="no"?>
<svg
   xmlns:dc="http://purl.org/dc/elements/1.1/"
   xmlns:cc="http://creativecommons.org/ns#"
   xmlns:rdf="http://www.w3.org/1999/02/22-rdf-syntax-ns#"
   xmlns:svg="http://www.w3.org/2000/svg"
   xmlns="http://www.w3.org/2000/svg"
   xmlns:xlink="http://www.w3.org/1999/xlink"
   xmlns:sodipodi="http://sodipodi.sourceforge.net/DTD/sodipodi-0.dtd"
   xmlns:inkscape="http://www.inkscape.org/namespaces/inkscape"
   width="48"
   height="48"
   viewBox="0 0 48 48"
   version="1.1"
   id="svg52"
   sodipodi:docname="system-file-manager.svg"
   inkscape:version="0.92.4 (5da689c313, 2019-01-14)">
  <metadata
     id="metadata56">
    <rdf:RDF>
      <cc:Work
         rdf:about="">
        <dc:format>image/svg+xml</dc:format>
        <dc:type
           rdf:resource="http://purl.org/dc/dcmitype/StillImage" />
      </cc:Work>
    </rdf:RDF>
  </metadata>
  <sodipodi:namedview
     pagecolor="#ffffff"
     bordercolor="#666666"
     borderopacity="1"
     objecttolerance="10"
     gridtolerance="10"
     guidetolerance="10"
     inkscape:pageopacity="0"
     inkscape:pageshadow="2"
     inkscape:window-width="1920"
     inkscape:window-height="1017"
     id="namedview54"
     showgrid="false"
     inkscape:zoom="4.9166667"
     inkscape:cx="-12.508474"
     inkscape:cy="24"
     inkscape:window-x="0"
     inkscape:window-y="0"
     inkscape:window-maximized="1"
     inkscape:current-layer="svg52" />
  <defs
     id="defs32">
    <linearGradient
       xlink:href="#linearGradient4393"
       id="linearGradient4399"
       x1="424.441"
       y1="502.85"
       x2="440.878"
       y2="529.576"
       gradientUnits="userSpaceOnUse"
       gradientTransform="matrix(0.69224711,0,0,0.69224711,-280.19324,674.76546)" />
    <linearGradient
       id="linearGradient4393">
      <stop
         style="stop-color:#000000;stop-opacity:1;"
         offset="0"
         id="stop3" />
      <stop
         style="stop-color:#000000;stop-opacity:0;"
         offset="1"
         id="stop5" />
    </linearGradient>
    <linearGradient
       xlink:href="#linearGradient4274"
       id="linearGradient4217"
       gradientUnits="userSpaceOnUse"
       gradientTransform="matrix(0.69224711,0,0,0.69224711,-264.27155,2671.7976)"
       x1="390.571"
       y1="498.298"
       x2="442.571"
       y2="498.298" />
    <linearGradient
       id="linearGradient4274">
      <stop
         offset="0"
         style="stop-color:#ffffff;stop-opacity:1;"
         id="stop9" />
      <stop
         offset="1"
         style="stop-color:#ffffff;stop-opacity:0.48760331"
         id="stop11" />
    </linearGradient>
    <linearGradient
       xlink:href="#linearGradient4172-5"
       id="linearGradient4178"
       y1="523.90393"
       y2="524.40479"
       x2="387.82605"
       gradientUnits="userSpaceOnUse"
       gradientTransform="matrix(0.69224711,0,0,0.69202181,-264.27155,671.42636)"
       x1="444.7392" />
    <linearGradient
       id="linearGradient4172-5">
      <stop
         style="stop-color:#a3a5d8;stop-opacity:1"
         id="stop15" />
      <stop
         offset="1"
         style="stop-color:#8ac1ca;stop-opacity:1"
         id="stop17" />
    </linearGradient>
    <linearGradient
       xlink:href="#linearGradient4227"
       id="linearGradient4225"
       gradientUnits="userSpaceOnUse"
       x1="396.571"
       y1="498.798"
       x2="426.571"
       y2="511.798"
       gradientTransform="matrix(0.69224711,0,0,0.69224711,-264.27155,671.68871)" />
    <linearGradient
       id="linearGradient4227">
      <stop
         offset="0"
         style="stop-color:#f5f5f5;stop-opacity:1"
         id="stop21" />
      <stop
         offset="1"
         style="stop-color:#f9f9f9;stop-opacity:1"
         id="stop23" />
    </linearGradient>
    <linearGradient
       gradientTransform="matrix(0.69224711,0,0,0.69224711,-264.27155,671.30423)"
       xlink:href="#linearGradient4291"
       id="linearGradient4297"
       x1="388.571"
       y1="487.798"
       x2="416.571"
       y2="507.798"
       gradientUnits="userSpaceOnUse" />
    <linearGradient
       id="linearGradient4291">
      <stop
         style="stop-color:#3e3575;stop-opacity:1"
         offset="0"
         id="stop27" />
      <stop
         style="stop-color:#7cccd8;stop-opacity:1"
         offset="1"
         id="stop29" />
    </linearGradient>
  </defs>
  <g
     transform="translate(0,-1004.3622)"
     id="g50">
    <path
       style="fill:url(#linearGradient4297);fill-opacity:1"
       d="m 4,1030.3622 40,0 0,-17 -20,0 -3,-3 -17,0 z"
       id="path34" />
    <rect
       ry="1"
       rx="1"
       y="1017.36"
       x="5"
       height="9"
       width="38"
       style="color:#000000;clip-rule:nonzero;display:inline;overflow:visible;visibility:visible;opacity:1;isolation:auto;mix-blend-mode:normal;color-interpolation:sRGB;color-interpolation-filters:linearRGB;solid-color:#000000;solid-opacity:1;fill:#4e9fac;fill-opacity:1;fill-rule:nonzero;stroke:none;stroke-width:1;stroke-linecap:butt;stroke-linejoin:miter;stroke-miterlimit:4;stroke-dasharray:none;stroke-dashoffset:0;stroke-opacity:1;marker:none;color-rendering:auto;image-rendering:auto;shape-rendering:auto;text-rendering:auto;enable-background:accumulate"
       id="rect36" />
    <path
       style="fill:url(#linearGradient4178)"
       d="m 20,1023.3622 -3,2 -13,0 0,1 -1e-6,18.9982 c 0,0.5398 0.4886447,0.9906 0.9837517,0.9907 L 43,1046.3622 c 0.510707,0.016 1,-0.3955 1,-1 l 0,-22 z"
       id="path38" />
    <path
       style="opacity:0.3;fill:#ffffff;fill-opacity:1;fill-rule:evenodd"
       d="m 4,1025.3622 0,1 14,0 2,-3 -3,2 z"
       id="path40" />
    <path
       style="opacity:0.3;fill:#ffffff;fill-opacity:1;fill-rule:evenodd"
       d="m 21,1010.3622 2,4 2,0 19,0 0,-1 -19,0 -1,0 z"
       id="path42" />
    <path
       style="opacity:0.09899998;fill:url(#linearGradient4399);fill-opacity:1;fill-rule:evenodd;stroke:none;stroke-width:1px;stroke-linecap:butt;stroke-linejoin:miter;stroke-opacity:1"
       d="m 4,1026.3622 14,0 2,-3 24,10e-5 0.17398,22.3079 -20.767414,0 z"
       id="path44" />
    <path
       style="fill:#000000;color:#000000;clip-rule:nonzero;display:inline;overflow:visible;visibility:visible;opacity:0.3;isolation:auto;mix-blend-mode:normal;color-interpolation:sRGB;color-interpolation-filters:linearRGB;solid-color:#000000;solid-opacity:1;fill-opacity:1;fill-rule:nonzero;stroke:none;stroke-width:1;stroke-linecap:butt;stroke-linejoin:miter;stroke-miterlimit:4;stroke-dasharray:none;stroke-dashoffset:0;stroke-opacity:1;marker:none;filter-blend-mode:normal;filter-gaussianBlur-deviation:0;color-rendering:auto;image-rendering:auto;shape-rendering:auto;text-rendering:auto;enable-background:accumulate"
       d="M 4 39.998047 L 4 40.998047 C 4 41.537847 4.489268 41.988181 4.984375 41.988281 L 43 42 C 43.510707 42.016 44 41.6045 44 41 L 44 40 C 44 40.6045 43.510707 41.016 43 41 L 4.984375 40.988281 C 4.489268 40.988181 4 40.537847 4 39.998047 z"
       transform="translate(0,1004.3622)"
       id="path46" />
    <path
       style="color:#000000;clip-rule:nonzero;display:inline;overflow:visible;visibility:visible;opacity:0.85;isolation:auto;mix-blend-mode:normal;color-interpolation:sRGB;color-interpolation-filters:linearRGB;solid-color:#000000;solid-opacity:1;fill:#4e9fac;fill-opacity:1;fill-rule:nonzero;stroke:none;stroke-width:1;stroke-linecap:butt;stroke-linejoin:miter;stroke-miterlimit:4;stroke-dasharray:none;stroke-dashoffset:0;stroke-opacity:1;marker:none;color-rendering:auto;image-rendering:auto;shape-rendering:auto;text-rendering:auto;enable-background:accumulate"
       d="m 6,1017.3622 c -0.554,0 -1,0.446 -1,1 l 0,1 c 0,-0.554 0.446,-1 1,-1 l 36,0 c 0.554,0 1,0.446 1,1 l 0,-1 c 0,-0.554 -0.446,-1 -1,-1 z"
       id="path48" />
  </g>
</svg>

<?xml version="1.0" encoding="UTF-8" standalone="no"?>
<svg
   width="48"
   height="48"
   viewBox="0 0 48 48"
   version="1.1"
   id="svg52"
   sodipodi:docname="system-file-manager.svg"
   inkscape:version="1.1.1 (3bf5ae0d25, 2021-09-20)"
   xmlns:inkscape="http://www.inkscape.org/namespaces/inkscape"
   xmlns:sodipodi="http://sodipodi.sourceforge.net/DTD/sodipodi-0.dtd"
   xmlns:xlink="http://www.w3.org/1999/xlink"
   xmlns="http://www.w3.org/2000/svg"
   xmlns:svg="http://www.w3.org/2000/svg"
   xmlns:rdf="http://www.w3.org/1999/02/22-rdf-syntax-ns#"
   xmlns:cc="http://creativecommons.org/ns#"
   xmlns:dc="http://purl.org/dc/elements/1.1/">
  <metadata
     id="metadata56">
    <rdf:RDF>
      <cc:Work
         rdf:about="">
        <dc:format>image/svg+xml</dc:format>
        <dc:type
           rdf:resource="http://purl.org/dc/dcmitype/StillImage" />
      </cc:Work>
    </rdf:RDF>
  </metadata>
  <sodipodi:namedview
     pagecolor="#ffffff"
     bordercolor="#666666"
     borderopacity="1"
     objecttolerance="10"
     gridtolerance="10"
     guidetolerance="10"
     inkscape:pageopacity="0"
     inkscape:pageshadow="2"
     inkscape:window-width="1920"
     inkscape:window-height="1015"
     id="namedview54"
     showgrid="true"
     inkscape:zoom="9.8333334"
     inkscape:cx="3.1525424"
     inkscape:cy="18.254237"
     inkscape:window-x="0"
     inkscape:window-y="0"
     inkscape:window-maximized="1"
     inkscape:current-layer="svg52"
     inkscape:pagecheckerboard="0">
    <inkscape:grid
       type="xygrid"
       id="grid869" />
  </sodipodi:namedview>
  <defs
     id="defs32">
    <linearGradient
       xlink:href="#linearGradient4393"
       id="linearGradient4399"
       x1="424.441"
       y1="502.85"
       x2="440.878"
       y2="529.576"
       gradientUnits="userSpaceOnUse"
       gradientTransform="matrix(0.69224711,0,0,0.69224711,-280.19324,674.76546)" />
    <linearGradient
       id="linearGradient4393">
      <stop
         style="stop-color:#000000;stop-opacity:1;"
         offset="0"
         id="stop3" />
      <stop
         style="stop-color:#000000;stop-opacity:0;"
         offset="1"
         id="stop5" />
    </linearGradient>
    <linearGradient
       xlink:href="#linearGradient4274"
       id="linearGradient4217"
       gradientUnits="userSpaceOnUse"
       gradientTransform="matrix(0.69224711,0,0,0.69224711,-264.27155,2671.7976)"
       x1="390.571"
       y1="498.298"
       x2="442.571"
       y2="498.298" />
    <linearGradient
       id="linearGradient4274">
      <stop
         offset="0"
         style="stop-color:#ffffff;stop-opacity:1;"
         id="stop9" />
      <stop
         offset="1"
         style="stop-color:#ffffff;stop-opacity:0.48760331"
         id="stop11" />
    </linearGradient>
    <linearGradient
       xlink:href="#linearGradient4172-5"
       id="linearGradient4178"
       y1="523.90393"
       y2="524.40479"
       x2="387.82605"
       gradientUnits="userSpaceOnUse"
       gradientTransform="matrix(0.69224711,0,0,0.69202181,-264.27155,671.42636)"
       x1="444.7392" />
    <linearGradient
       id="linearGradient4172-5">
      <stop
         style="stop-color:#a3a5d8;stop-opacity:1"
         id="stop15" />
      <stop
         offset="1"
         style="stop-color:#8ac1ca;stop-opacity:1"
         id="stop17" />
    </linearGradient>
    <linearGradient
       xlink:href="#linearGradient4227"
       id="linearGradient4225"
       gradientUnits="userSpaceOnUse"
       x1="396.571"
       y1="498.798"
       x2="426.571"
       y2="511.798"
       gradientTransform="matrix(0.69224711,0,0,0.69224711,-264.27155,671.68871)" />
    <linearGradient
       id="linearGradient4227">
      <stop
         offset="0"
         style="stop-color:#f5f5f5;stop-opacity:1"
         id="stop21" />
      <stop
         offset="1"
         style="stop-color:#f9f9f9;stop-opacity:1"
         id="stop23" />
    </linearGradient>
    <linearGradient
       gradientTransform="matrix(0.69224711,0,0,0.69224711,-264.27155,671.30423)"
       xlink:href="#linearGradient4291"
       id="linearGradient4297"
       x1="388.571"
       y1="487.798"
       x2="416.571"
       y2="507.798"
       gradientUnits="userSpaceOnUse" />
    <linearGradient
       id="linearGradient4291">
      <stop
         style="stop-color:#3e3575;stop-opacity:1"
         offset="0"
         id="stop27" />
      <stop
         style="stop-color:#7cccd8;stop-opacity:1"
         offset="1"
         id="stop29" />
    </linearGradient>
  </defs>
  <g
     transform="matrix(1,0,0,0.88887776,0,-890.08849)"
     id="g50">
    <path
       style="fill:url(#linearGradient4297);fill-opacity:1"
       d="m 4,1030.3622 h 40 v -17 H 24 l -3,-3 H 4 Z"
       id="path34" />
    <rect
       ry="1"
       rx="1"
       y="1017.36"
       x="5"
       height="9"
       width="38"
       style="color:#000000;clip-rule:nonzero;display:inline;overflow:visible;visibility:visible;opacity:1;isolation:auto;mix-blend-mode:normal;color-interpolation:sRGB;color-interpolation-filters:linearRGB;solid-color:#000000;solid-opacity:1;fill:#4e9fac;fill-opacity:1;fill-rule:nonzero;stroke:none;stroke-width:1;stroke-linecap:butt;stroke-linejoin:miter;stroke-miterlimit:4;stroke-dasharray:none;stroke-dashoffset:0;stroke-opacity:1;marker:none;color-rendering:auto;image-rendering:auto;shape-rendering:auto;text-rendering:auto;enable-background:accumulate"
       id="rect36" />
    <path
       style="fill:url(#linearGradient4178)"
       d="m 20,1023.3622 -3,2 H 4 v 1 l -1e-6,18.9982 c 0,0.5398 0.4886447,0.9906 0.9837517,0.9907 L 43,1046.3622 c 0.510707,0.016 1,-0.3955 1,-1 v -22 z"
       id="path38" />
    <path
       style="opacity:0.3;fill:#ffffff;fill-opacity:1;fill-rule:evenodd"
       d="m 4,1025.3622 v 1 h 14 l 2,-3 -3,2 z"
       id="path40" />
    <path
       style="opacity:0.3;fill:#ffffff;fill-opacity:1;fill-rule:evenodd"
       d="m 21,1010.3622 2,4 h 2 19 v -1 H 25 24 Z"
       id="path42" />
    <path
       style="opacity:0.099;fill:url(#linearGradient4399);fill-opacity:1;fill-rule:evenodd;stroke:none;stroke-width:1px;stroke-linecap:butt;stroke-linejoin:miter;stroke-opacity:1"
       d="m 4,1026.3622 h 14 l 2,-3 24,10e-5 0.17398,22.3079 H 23.406566 Z"
       id="path44" />
    <path
       style="color:#000000;clip-rule:nonzero;display:inline;overflow:visible;visibility:visible;opacity:0.3;isolation:auto;mix-blend-mode:normal;color-interpolation:sRGB;color-interpolation-filters:linearRGB;solid-color:#000000;solid-opacity:1;fill:#000000;fill-opacity:1;fill-rule:nonzero;stroke:none;stroke-width:1;stroke-linecap:butt;stroke-linejoin:miter;stroke-miterlimit:4;stroke-dasharray:none;stroke-dashoffset:0;stroke-opacity:1;marker:none;color-rendering:auto;image-rendering:auto;shape-rendering:auto;text-rendering:auto;enable-background:accumulate"
       d="m 4,39.998047 v 1 c 0,0.5398 0.489268,0.990134 0.984375,0.990234 L 43,42 c 0.510707,0.016 1,-0.3955 1,-1 v -1 c 0,0.6045 -0.489293,1.016 -1,1 L 4.984375,40.988281 C 4.489268,40.988181 4,40.537847 4,39.998047 Z"
       transform="translate(0,1004.3622)"
       id="path46" />
    <path
       style="color:#000000;clip-rule:nonzero;display:inline;overflow:visible;visibility:visible;opacity:0.85;isolation:auto;mix-blend-mode:normal;color-interpolation:sRGB;color-interpolation-filters:linearRGB;solid-color:#000000;solid-opacity:1;fill:#4e9fac;fill-opacity:1;fill-rule:nonzero;stroke:none;stroke-width:1;stroke-linecap:butt;stroke-linejoin:miter;stroke-miterlimit:4;stroke-dasharray:none;stroke-dashoffset:0;stroke-opacity:1;marker:none;color-rendering:auto;image-rendering:auto;shape-rendering:auto;text-rendering:auto;enable-background:accumulate"
       d="m 6,1017.3622 c -0.554,0 -1,0.446 -1,1 v 1 c 0,-0.554 0.446,-1 1,-1 h 36 c 0.554,0 1,0.446 1,1 v -1 c 0,-0.554 -0.446,-1 -1,-1 z"
       id="path48" />
  </g>
</svg>
